src/svg/building.svg

<svg width="21" height="20" viewBox="0 0 21 20" fill="none" xmlns="http://www.w3.org/2000/svg">
<path fill-rule="evenodd" clip-rule="evenodd" d="M7.13315 1.00007C7.08146 1.00007 7.02912 1.01445 6.98083 1.03273C6.93254 1.05101 6.88688 1.07708 6.84845 1.11115L3.64441 3.95576C3.63784 3.96161 3.63061 3.96258 3.62448 3.96885V3.97534C3.57816 4.0212 3.53918 4.07734 3.5186 4.13878C3.49801 4.20021 3.49593 4.26436 3.50546 4.32839V18.5775C3.50546 18.6323 3.51728 18.6904 3.53853 18.741C3.55977 18.7916 3.59196 18.8396 3.63116 18.8784C3.67036 18.9171 3.7123 18.9424 3.76355 18.9634C3.81479 18.9844 3.8736 18.9961 3.92911 18.9961H13.8061C13.8655 19.0041 13.9274 18.9999 13.9848 18.9831C14.0422 18.9661 14.0984 18.9368 14.1437 18.8981C14.1469 18.8956 14.1473 18.8943 14.1503 18.8916L17.361 16.047C17.4052 16.0078 17.4428 15.9632 17.4669 15.9096C17.4911 15.8561 17.5 15.7982 17.5 15.7396V1.41849C17.5 1.36376 17.4882 1.31217 17.4669 1.26154C17.4457 1.21092 17.4201 1.163 17.3809 1.12417C17.3417 1.08545 17.293 1.05354 17.2418 1.03267C17.1906 1.01168 17.1318 1 17.0762 1H7.13307L7.13315 1.00007ZM7.2986 1.83714H15.9641L13.7001 3.84468H5.03458L7.2986 1.83714ZM16.6528 2.35373V15.55L14.2961 17.6426V4.44628L16.6528 2.35373ZM5.98811 6.10713H7.62326V8.53977H5.98811V6.10713ZM10.1786 6.10713H11.8071V8.53977H10.1786V6.10713ZM5.98811 10.7502H7.62326V13.1829H5.98811V10.7502ZM10.1786 10.7502H11.8071V13.1829H10.1786V10.7502ZM7.19292 16.3085H8.47723V18.1591H7.19292V16.3085ZM9.32454 16.3085H10.6022V18.1591H9.32454V16.3085Z" fill="#9499A8"/>
</svg>

<svg width="21" height="20" fill="none" xmlns="http://www.w3.org/2000/svg">
  <path fill-rule="evenodd" clip-rule="evenodd" d="M7.133 1a.439.439 0 0 0-.152.033.428.428 0 0 0-.133.078L3.644 3.956c-.006.006-.013.007-.02.013v.006a.426.426 0 0 0-.105.164.404.404 0 0 0-.014.19v14.249a.432.432 0 0 0 .126.3.447.447 0 0 0 .298.118h9.877a.435.435 0 0 0 .338-.098l.006-.006 3.211-2.845a.41.41 0 0 0 .106-.137.409.409 0 0 0 .033-.17V1.418a.4.4 0 0 0-.033-.156.411.411 0 0 0-.086-.138.434.434 0 0 0-.305-.124H7.133Zm.166.837h8.665L13.7 3.845H5.035l2.264-2.008Zm9.354.517V15.55l-2.357 2.093V4.446l2.357-2.092ZM5.988 6.107h1.635V8.54H5.988V6.107Zm4.19 0h1.63V8.54h-1.63V6.107Zm-4.19 4.643h1.635v2.433H5.988V10.75Zm4.19 0h1.63v2.433h-1.63V10.75Zm-2.985 5.558h1.284v1.851H7.193v-1.85Zm2.132 0h1.277v1.851H9.325v-1.85Z" fill="#9499A8"/>
</svg>
